X: 1
T:Kissing Pilgrims in the Kitchen
L:1/8
M:6/8
P:A2B2C2
Q:1/4=180
R:jig 48
K:Gmaj
%ALTO K: Gmaj clef=alto middle=c
%BASS K: Gmaj clef=bass middle=d
T:Merrily Kissed The Quaker's Wife
K:Gmaj
|:D|"G"GAB G2B | "C"c2A BGE|"G"GAB DEG | "D"A2A AGE|
"G"GAB GAB | "C"cBA BGE|"G"GAB "D"AGF | "G"G3 G2:|
|:A|"Em"BGG AGG| BGG AGG|"G"GAB DEG | "D"A2A AGA|
"Em"BGG AGG | "C"BGG AGG|"G"GAB "D"AGF | "G"G3 G2:|
|:d|"C"g2g a2a | "Em"bag edB|"Am7"g2g gab | "D"a2a agf|
"C"g2g f2f | "Em"ege dBA|"G"GAB "D"AGF | "G"G3 G2:|
%
P:B
T:The Blarney Pilgrim
K:Dmix
%ALTO K: Dmix clef=alto middle=c
%BASS K: Dmix clef=bass middle=d
|:"D"DED DEG| "Am"A2A ABc| "G"BAG AGE| "Em"GEA GED|
"D"DED DEG|"Am"A2A ABc|"G"BAG AGE| "D"GED D3:|
|:"C"ded dBG|AGA BGE| "G"ded dBG|"D"AGA GAB|
"Em"g2e dBG|"Am"AGA BGE|"G"B2G "D"AGE| "G"GAG G3:|
|:"D"A2D "G"B2D| "D"A2D ABc|"C"BAG AGE|GEA GED|
"D"ADD "G"BDD|"D"ADD "C"ABc|"G"BAG AGE|"D"GED D3:|
%%newpage%%
P:C
T:The Cook In The Kitchen
K:Gmaj
%ALTO K: Gmaj clef=alto middle=c
%BASS K: Gmaj clef=bass middle=d
|: E | "G"DGG GFG | "F"=FDE ~F3 | "C"DGG GFG | "D"A2 d cAG |
"G"DGG GFG | "F"=FDE F2 d | "C"cAG "D"FGA | "G"BGG G2 :|
|: A | "Em"~B3 BAG | "D"~A3 AGF | "C"~G3 GFG | "D"A2 d cAG |
"Em"~B3 BAG | "D"~A3 A2 d | "C"cAG "D"FGA | "G"BGG G2 :|
|: B | "D"d2 e f2 g | a2 g fed | "C"cAG "Bm"FGA | "Bm"B/2c/2dB "C"cAG |
"D"d2 e f2 g | a2 g fed | "C"cAG "D"FGA | "G"BGG G2 :|
